X:62
T: ET FRAD DE KENENK GENZT DEM REIN
N: E0042H
O: Europa, Mitteleuropa, Deutschland; Rumaenien, Siebenbuergen
R: erzaehlendes Volks - Lied, Ritter -, Raeuber - Sage
M: 4/4
L: 1/8
K: G
BBB | E3B,E2F2 | E4z
BBB | A2A2B2A2 | G4z
ddd | G3Gc2B2 | A4z
EDD | BDG2B3A | G4z
ddd | G3Gc2B2 | A4z
EDD | B,DG2B3A | G4z

